icon-themes/breeze_svg/cmd/lc_trackchangesbar.svg

<svg viewBox="0 0 24 24" xmlns="http://www.w3.org/2000/svg"><path d="m5 4v16 .001953h1 12 1v-10.5937499-1.40625-.0097656l-3.992188-3.9921875-.007812.0097656v-.0097656h-1-8zm1 1h8v3 1h4v10h-12zm2 7v1h5v-1zm3 3v1h5v-1z" fill="#4d4d4d"/><path d="m8 9v1h4v-1zm6 3v1h2v-1zm-6 3v1h1v-1z" fill="#da4453"/></svg>

<svg xmlns="http://www.w3.org/2000/svg" viewBox="0 0 24 24">
 <path 
     style="fill:#4d4d4d" 
     d="M 5 4 L 5 20 L 5 20.001953 L 6 20.001953 L 18 20.001953 L 19 20.001953 L 19 9.4082031 L 19 8.0019531 L 19 7.9921875 L 15.007812 4 L 15 4.0097656 L 15 4 L 14 4 L 6 4 L 5 4 z M 6 5 L 14 5 L 14 8 L 14 9 L 18 9 L 18 19 L 6 19 L 6 5 z M 8 12 L 8 13 L 13 13 L 13 12 L 8 12 z M 11 15 L 11 16 L 16 16 L 16 15 L 11 15 z "
     />
 <path 
     style="fill:#da4453" 
     d="M 8 9 L 8 10 L 12 10 L 12 9 L 8 9 z M 14 12 L 14 13 L 16 13 L 16 12 L 14 12 z M 8 15 L 8 16 L 9 16 L 9 15 L 8 15 z "
     />
 </svg>
